X:851
T:Highland Whisky 
C:Joe Buchanan's Scottish Tome - Page 416.2
I:416 2
C:Neil Gow
R:Strathspey
Z:Carl Allison
L:1/8
M:4/4
K:A
E | "A"A<AA>B A>Bc<e | "B7"B<BB>c "E7"d>ef<a | "A"A<AA>B A>Bc>d | "A"ef/g/ a>c "E7"{c}B2 "A"A2 :|
e | "A"c/B/A e>A f>A"A"e>A | "Bm7"F<BB>A "E7"G<BB>d | "A"c/B/A e>A "D"f>A"A"e>A | "A"ef/g/ a>c "E7"B2 "A"A>e |
"A"c/B/A e>A f>A"A"e>A | "Bm"F<BB>A "E7"G<BB>c | "A"A<c B<d c<e d<f | "A"ef/>g/ a>c "E7"B2 "A"A :|

